X:236
T: Das Regina coeli deutsch, auf die osterliche Zeit zu singen
N: A0595A
O: Europa, Mitteleuropa, Deutschland
N: Leisentrit 1567 II fol. 24.
R: Romanze, Ballade, Lied, religioeses Lied
M: 4/1
L: 1/2
K: F
F2c2A2F2 | GAB2A4 | z2c2d2cB | A2F4z2 |
B2G2A2F2 | G2FGA2FF | G2FED2C2 |
c2cBA2F2 | B4A2F2 | G4F4

@@@ Tune index: 549
